!!!COM:	Japart, Jean
!!!CDT:	~1450//-~1507//
!!!OTL:	Famene un poco
!!!AGN:	Song; Chanson
!!!SCT:	Jap3006
!!!SCA:	Jap3006
!!!voices:	4
**kern	**kern	**kern	**kern
*staff4	*staff3	*staff2	*staff1
*Ivox	*Ivox	*Ivox	*Ivox
*I"Bassus	*I"Tenor	*I"Altus	*I"Discantus
*I'B	*I'T	*I'A	*I'D
*clefF4	*clefGv2	*clefGv2	*clefG2
*k[]	*k[]	*k[]	*k[]
*M2/1	*M2/1	*M2/1	*M2/1
*met(C|)	*met(C|)	*met(C|)	*met(C|)
=1-	=1-	=1-	=1-
0d	0r	1r	0r
.	.	[1d	.
=2	=2	=2	=2
1d	0d	1d]	0r
1d	.	1d	.
=3	=3	=3	=3
0G	1d	1d	0dd
.	1d	[1G	.
=4	=4	=4	=4
1G	0G	1G]	1dd
1d	.	2G	1dd
.	.	2A	.
=5	=5	=5	=5
1.d	1.G	1.B	1g
.	.	.	[1g
2c	2A	2c	.
=6	=6	=6	=6
1B	1B	1d	1g]
1A	1c	2e	1a
.	.	2f	.
=7	=7	=7	=7
2G	1B	2g	1b
2d	.	1g	.
2.c	1A	.	1cc
.	.	2f#i	.
4d	.	.	.
=8	=8	=8	=8
1e	[0G	1.g	2.b
.	.	.	4cc
1d	.	.	2b
.	.	4f	2a
.	.	4e	.
=9	=9	=9	=9
1r	0G]	1d	0g
1d	.	2r	.
.	.	2d	.
=10	=10	=10	=10
1d	0d	2d	1g
.	.	2d	.
1d	.	1G	1r
=11	=11	=11	=11
1G	1d	2G	0dd
.	.	2G	.
1G	1d	2d	.
.	.	2d	.
=12	=12	=12	=12
1r	0G	2d	1dd
.	.	2d	.
1d	.	2G	1dd
.	.	[2g	.
=13	=13	=13	=13
2e	1G	2g]	2g
2.d	.	4f	2b
.	.	4e	.
.	1d	1f	2a
4c	.	.	.
4B	.	.	[2dd
4A	.	.	.
=14	=14	=14	=14
2G	1.d	0r	4dd]
.	.	.	4cc
2.F	.	.	2.a
4G	.	.	4g
2A	2c	.	4f
.	.	.	4e
=15	=15	=15	=15
2B	1B	1r	2d
2G	.	.	1g
1D	1A	[1d	.
.	.	.	2f#i
=16	=16	=16	=16
0r	0G	2d]	1g
.	.	2e	.
.	.	2d	[1dd
.	.	[2g	.
=17	=17	=17	=17
1r	0G	2g]	2dd]
.	.	2g	1ee
1G	.	1g	.
.	.	.	4dd
.	.	.	4cc
=18	=18	=18	=18
1G	1r	1g	0b
1G	1g	1g	.
=19	=19	=19	=19
0C	1g	1g	1r
.	1g	1c	[1ee
=20	=20	=20	=20
1.C	0c	1c	1ee]
.	.	1r	1ee
2D	.	.	.
=21	=21	=21	=21
1E	1c	1G	1ee
1F	1d	1A	1dd
=22	=22	=22	=22
1E	1e	2G	1cc
.	.	1c	.
1D	1f	.	1dd
.	.	2B	.
=23	=23	=23	=23
2C	1e	1c	1ee
1c	.	.	.
.	1d	1r	1ff
2B	.	.	.
=24	=24	=24	=24
2c	0c	1r	2ee
1A	.	.	1cc
.	.	1g	.
4G	.	.	4b
4F	.	.	4a
=25	=25	=25	=25
2E	1c	1r	2g
1F	.	.	1a
.	1r	1f	.
4E	.	.	4g
4D	.	.	4f
=26	=26	=26	=26
[0C	1r	1g	0e
.	1g	1g	.
=27	=27	=27	=27
0C_	1g	1c	1r
.	1g	1c	1g
=28	=28	=28	=28
0C]	0c	0r	1g
.	.	.	1g
=29	=29	=29	=29
1r	1c	0r	2c
.	.	.	2cc
2r	1g	.	2b
[2c	.	.	[2ee
=30	=30	=30	=30
2c]	1.g	0r	2ee]
2B	.	.	2dd
2c	.	.	2ee
2d	2f	.	[2dd
=31	=31	=31	=31
2G	2g	1r	4dd]
.	.	.	4cc
2A	2c	.	1cc
1G	1d	1g	.
.	.	.	2b
=32	=32	=32	=32
1r	0c	2g	1cc
.	.	2g	.
1A	.	2c	1a
.	.	2f	.
=33	=33	=33	=33
1A	0c	2e	1r
.	.	2.a	.
1A	.	.	1a
.	.	4g	.
.	.	2e	.
=34	=34	=34	=34
0D	0r	2f	1a
.	.	2.d	.
.	.	.	1a
.	.	4c	.
.	.	2A	.
=35	=35	=35	=35
1D	0r	2B	2d
.	.	2A	2f
1A	.	1c	2e
.	.	.	[2a
=36	=36	=36	=36
1.A	0r	1F	4a]
.	.	.	4g
.	.	.	4f
.	.	.	4e
.	.	1r	2f
2G	.	.	[2e
=37	=37	=37	=37
2F	0r	1f	4e]
.	.	.	4d
2D	.	.	2.d
1E	.	1g	.
.	.	.	4B
.	.	.	2c#i
=38	=38	=38	=38
1D	0r	2.f	0d
.	.	4g	.
2D	.	2a	.
[2d	.	[2b-i	.
=39	=39	=39	=39
2d]	0r	2b-]	1r
2c	.	1a	.
1B-i	.	.	1dd
.	.	2g	.
=40	=40	=40	=40
2.A	0r	1a	2.cc
4B	.	.	4dd
2c	.	1a	2ee
[2d	.	.	[2ff
=41	=41	=41	=41
2d]	0r	1a	2ff]
2c	.	.	2ee
[1d	.	1a	[1ff
=42	=42	=42	=42
2d]	0r	0d	2ff]
2c	.	.	2ee
2B	.	.	2dd
4A	.	.	4cc
4G	.	.	4b
=43	=43	=43	=43
2.F	0r	1d	1.a
4E	.	.	.
4F	.	1a	.
4G	.	.	.
[2A	.	.	[2cc
=44	=44	=44	=44
4A]	0r	1.a	4cc]
4G	.	.	4dd
4F	.	.	2.ff
4E	.	.	.
2D	.	.	.
.	.	.	4ee
2E	.	2g	[2ee
=45	=45	=45	=45
2F	0r	1f	4ee]
.	.	.	4dd
2D	.	.	1dd
1A	.	1e	.
.	.	.	2cc#i
=46	=46	=46	=46
1D	0r	1d	0dd
1r	.	2d	.
.	.	2d	.
=47	=47	=47	=47
1d	0r	2d	1r
.	.	2d	.
2d	.	1G	1dd
2d	.	.	.
=48	=48	=48	=48
1G	1d	2G	2dd
.	.	2G	2dd
2G	2d	2d	1g
2G	2d	2d	.
=49	=49	=49	=49
2d	1G	2d	2g
2d	.	2d	2g
2d	2G	1G	2dd
2d	2G	.	2dd
=50	=50	=50	=50
1G	2d	1G	2dd
.	2d	.	2dd
1G	2d	1d	1g
.	2d	.	.
=51	=51	=51	=51
1d	1G	2d	1g
.	.	2d	.
2d	1G	1G	1dd
2d	.	.	.
=52	=52	=52	=52
1G	1d	2G	2dd
.	.	1g	2dd
1G	2d	.	1g
.	2d	2g	.
=53	=53	=53	=53
1r	0G	1g	2r
.	.	.	2dd
1G	.	1d	2dd
.	.	.	2dd
=54	=54	=54	=54
2E	1G	2e	2g
2G	.	2.d	2.dd
1D	1A	.	.
.	.	4e	4cc
.	.	2f	[2dd
=55	=55	=55	=55
1G	1B	2d	4dd]
.	.	.	4cc
.	.	1g	4b
.	.	.	4a
2E	1c	.	2g
[2F	.	[2f	[2a
=56	=56	=56	=56
4F]	1A	4f]	4a]
4G	.	4e	4g
2A	.	4d	4f#i
.	.	4c	4e
1D	1A	1d	2.f#i
.	.	.	4e
=57	=57	=57	=57
*^	*	*	*
[0Gl	[0dl	0G	[0dl	[0gl
=58	=58	=58	=58	=58
0G]yy	0d]yy	0Gl	0d]	0g]
*v	*v	*	*	*
==	==	==	==
*-	*-	*-	*-
!!!RDF**kern: l=long note in original notation
!!!RDF**kern: i=editorial accidental
!!!ENC:	Chris Gage 09-04-2013
!!!END:	2013/10/23/
!!!EED:	Jesse Rodin
!!!EEV:	2013/12/19/
!!!ONB:	Translated from MusicXML and edited on 2013/12/19/ by Craig Sapp
!!muse2ps: C^@{COM}^i2I150v85,85,85,100Q16
